packages/core/src/svgs/tokens/branded/SPE.svg

<svg width="24" height="24" viewBox="0 0 24 24" fill="none" xmlns="http://www.w3.org/2000/svg">
<path d="M3.66639 9.05557H3.11084V7.00001L5.11639 5.82224L5.40529 6.41112L3.66639 7.5889V9.06113V9.05557ZM3.68306 14.9445H3.11084V17.2944L5.11639 18.4723L5.33306 17.5834L3.68306 16.7055V14.9445ZM20.3164 9.05557H20.8887V7.00001L18.883 6.11668L18.5942 6.70556L20.3164 7.5889V9.06113V9.05557ZM20.3331 14.9445H20.8887V17.0001L18.883 18.1777L18.6664 17.2889L20.3331 16.4111V14.9445ZM11.7109 2.88334L10.2774 3.47223L9.9942 2.88334L11.7163 2L13.4386 2.88334L13.1442 3.47223L11.7109 2.88334ZM11.7109 21.1167L10.2774 20.5278L9.9942 21.1167L11.7163 22L13.4386 21.1167L13.1442 20.5278L11.7109 21.1167Z" fill="#F0D43A"/>
<path d="M5.33425 16L11.7121 19.6389L18.6676 15.7056V8.47225L11.7343 4.52225L5.33425 8.4667V16ZM11.7121 3.17781L4.22314 7.58892V16.7056L11.7121 20.8222L19.7787 16.4112V7.58892L11.7121 3.17781Z" fill="url(#paint0_linear_364_11937)"/>
<path d="M18.1109 8.47226L11.7109 4.93893L5.88867 8.47226V15.8223L11.7109 19.0612L18.1109 16.1112V8.47226Z" fill="url(#paint1_linear_364_11937)"/>
<path d="M11.7054 2.58893L20.3332 7.43893V16.5667L11.711 21.4111L3.6665 16.8555V7.44448L11.7054 2.58893ZM11.7164 3.26115L4.22206 7.77782V16.5111L11.711 20.7444L19.7776 16.2223V7.77782L11.722 3.26115H11.7164Z" fill="url(#paint2_linear_364_11937)"/>
<path d="M11.7058 4.35559L18.6669 8.32226V16.1166L11.7113 19.6445L5.3335 16.1166V8.33337L11.7058 4.36114V4.35559ZM11.7168 5.03336L5.88906 8.65559V15.8223L11.7113 18.9723L18.1113 15.6334V8.6667L11.7168 5.03336Z" fill="url(#paint3_linear_364_11937)"/>
<path d="M12.5553 12C12.5553 12.4889 12.183 12.8834 11.7219 12.8834C11.2608 12.8834 10.8887 12.4889 10.8887 12C10.8887 11.5111 11.2608 11.1167 11.7219 11.1167C12.183 11.1167 12.5553 11.5111 12.5553 12Z" fill="#F9DA2B"/>
<path fill-rule="evenodd" clip-rule="evenodd" d="M14.0118 13.3167C13.9563 13.7945 13.873 14.2446 13.7675 14.6612H13.773C13.6396 15.6334 12.9285 17.2945 11.7452 17.2945C10.9952 17.2945 10.3229 16.4834 9.89515 15.2278C8.60631 15.4834 7.57298 15.3056 7.1952 14.6445C7.07297 14.4334 7.02854 14.1778 7.05632 13.9L7.63965 13.9389C7.61742 14.1279 7.65076 14.2611 7.70076 14.3556C7.76743 14.4667 7.90631 14.589 8.17297 14.6668C8.45076 14.7501 8.82297 14.7778 9.2952 14.7278L9.72858 14.6612C9.61736 14.2446 9.53958 13.7945 9.4841 13.3167C8.42854 12.5334 6.35631 10.8278 7.1952 9.35561C7.57298 8.69449 8.60631 8.51672 9.89515 8.77227C10.3229 7.51672 10.9952 6.7056 11.7452 6.7056C11.9952 6.7056 12.2341 6.7945 12.4563 6.9556L12.1341 7.44449C11.9841 7.33338 11.8563 7.29449 11.7452 7.29449C11.6174 7.29449 11.4451 7.35005 11.2452 7.55004C10.917 7.88302 10.6716 8.28832 10.5285 8.73338L10.4729 8.90561C10.8785 9.01671 11.3063 9.17783 11.7508 9.36671C12.9508 8.83894 15.4507 7.87783 16.2952 9.35561C16.673 10.0111 16.3118 11 15.4453 12C16.3118 13.0001 16.673 13.9889 16.2952 14.6445C16.173 14.8668 15.9785 15.0278 15.7285 15.1444L15.4674 14.6167C15.6397 14.5389 15.7396 14.45 15.7897 14.3556C15.8563 14.239 15.8896 14.0611 15.8286 13.7833C15.7233 13.4189 15.5499 13.0776 15.3174 12.7778C15.2341 12.6667 15.1452 12.5445 15.0396 12.4278C14.7397 12.7333 14.3953 13.0278 14.0118 13.3167ZM13.3563 13.7667C13.3118 14.0334 13.2563 14.2889 13.1951 14.5278C12.9564 14.4667 12.7119 14.3834 12.4618 14.2889C12.7675 14.128 13.0659 13.9537 13.3563 13.7667ZM14.6452 12C14.473 12.1723 14.2786 12.35 14.073 12.5223C14.088 12.1742 14.088 11.8258 14.073 11.4779C14.2786 11.65 14.473 11.8279 14.6452 12ZM15.0452 11.5722C15.1452 11.4556 15.2341 11.3389 15.3174 11.2222C15.5952 10.8389 15.7618 10.5001 15.8286 10.2167C15.8896 9.9389 15.8563 9.76118 15.7897 9.64451C15.7229 9.53342 15.5897 9.41118 15.3174 9.33339C14.9525 9.24187 14.5735 9.22111 14.2008 9.27227C14.0555 9.28878 13.911 9.31103 13.7675 9.33893C13.873 9.7556 13.9563 10.2055 14.0118 10.6834C14.3953 10.9723 14.7397 11.2667 15.0452 11.5722ZM13.1951 9.47223C12.9564 9.53342 12.7119 9.61677 12.4618 9.71114C12.7675 9.87201 13.0659 10.0464 13.3563 10.2334C13.3118 9.96677 13.2563 9.71114 13.1951 9.47223ZM11.7508 10.0111C12.3479 10.293 12.9186 10.6278 13.4563 11.0112C13.5144 11.671 13.5144 12.3347 13.4563 12.9945C12.9166 13.3762 12.344 13.7089 11.7452 13.9889C11.148 13.7071 10.5773 13.3724 10.0397 12.989C9.98162 12.3291 9.98162 11.6654 10.0397 11.0056C10.5777 10.6243 11.1484 10.2915 11.7452 10.0111H11.7508ZM11.0285 9.71114C10.784 9.61677 10.5341 9.53342 10.2952 9.47223C10.2396 9.71114 10.1841 9.96677 10.1341 10.2334C10.4264 10.0464 10.7266 9.87214 11.0341 9.71114H11.0285ZM9.4841 10.6834C9.53958 10.2055 9.62293 9.7556 9.72858 9.33893C9.58508 9.31099 9.44041 9.28876 9.2952 9.27227C8.92103 9.21859 8.54002 9.23745 8.17297 9.32783C7.90631 9.41118 7.76743 9.53342 7.70076 9.64451C7.63965 9.76118 7.60076 9.9389 7.66742 10.2167C7.73409 10.4945 7.90075 10.8389 8.17853 11.2222C8.26187 11.3333 8.3452 11.4556 8.45076 11.5722C8.75631 11.2667 9.10076 10.9723 9.4841 10.6834ZM8.85075 12C9.02298 12.1723 9.21742 12.35 9.42291 12.5223C9.40801 12.1742 9.40801 11.8258 9.42291 11.4779C9.21742 11.65 9.02298 11.8279 8.85075 12ZM10.2952 14.5278C10.2396 14.2889 10.1841 14.0334 10.1341 13.7667C10.4264 13.9538 10.7266 14.128 11.0341 14.2889C10.784 14.3834 10.5341 14.4667 10.2952 14.5278ZM10.4675 15.0945C10.523 15.2389 10.573 15.3723 10.634 15.5056C10.8229 15.9389 11.0341 16.2556 11.2452 16.4501C11.4451 16.6501 11.6174 16.7056 11.7452 16.7056C11.8785 16.7056 12.0508 16.6501 12.2564 16.4501C12.4618 16.2556 12.673 15.9389 12.8674 15.5056C12.9229 15.3778 12.9785 15.2389 13.0286 15.0945C12.6174 14.9834 12.184 14.8223 11.7508 14.6334C11.3063 14.8223 10.8785 14.9779 10.4729 15.0945H10.4675Z" fill="url(#paint4_linear_364_11937)"/>
<path d="M13.1113 8.47226C13.4181 8.47226 13.6667 8.2086 13.6667 7.88337C13.6667 7.55813 13.4181 7.29448 13.1113 7.29448C12.8044 7.29448 12.5557 7.55813 12.5557 7.88337C12.5557 8.2086 12.8044 8.47226 13.1113 8.47226Z" fill="#FAD024"/>
<path d="M7.55555 13.7667C7.86237 13.7667 8.11111 13.503 8.11111 13.1778C8.11111 12.8525 7.86237 12.5889 7.55555 12.5889C7.24873 12.5889 7 12.8525 7 13.1778C7 13.503 7.24873 13.7667 7.55555 13.7667Z" fill="#FAD024"/>
<path d="M14.7778 15.5278C15.0846 15.5278 15.3332 15.2642 15.3332 14.9389C15.3332 14.6137 15.0846 14.35 14.7778 14.35C14.4709 14.35 14.2222 14.6137 14.2222 14.9389C14.2222 15.2642 14.4709 15.5278 14.7778 15.5278Z" fill="#FAD024"/>
<defs>
<linearGradient id="paint0_linear_364_11937" x1="12.0009" y1="2.00002" x2="12.0009" y2="22" gradientUnits="userSpaceOnUse">
<stop stop-color="#E3B033"/>
<stop offset="1" stop-color="#FBDC39"/>
</linearGradient>
<linearGradient id="paint1_linear_364_11937" x1="16.6544" y1="4.502" x2="7.5633" y2="20.4573" gradientUnits="userSpaceOnUse">
<stop stop-color="#B11723"/>
<stop offset="1" stop-color="#570203"/>
</linearGradient>
<linearGradient id="paint2_linear_364_11937" x1="15.0636" y1="3.91267" x2="11.9109" y2="21.9864" gradientUnits="userSpaceOnUse">
<stop stop-color="#FBF3A0"/>
<stop offset="0.23" stop-color="#F1CC3C"/>
<stop offset="0.47" stop-color="#FBEF8B"/>
<stop offset="0.63" stop-color="#EA9E28"/>
<stop offset="0.8" stop-color="#FADA39"/>
<stop offset="1" stop-color="#FCD83B"/>
</linearGradient>
<linearGradient id="paint3_linear_364_11937" x1="12.0001" y1="2.44334" x2="12.0001" y2="21.564" gradientUnits="userSpaceOnUse">
<stop stop-color="#E9A223"/>
<stop offset="0.59" stop-color="#EC801A"/>
<stop offset="1" stop-color="#EDB325"/>
</linearGradient>
<linearGradient id="paint4_linear_364_11937" x1="12.0024" y1="2.00004" x2="12.0024" y2="22" gradientUnits="userSpaceOnUse">
<stop stop-color="#DF9327"/>
<stop offset="0.29" stop-color="#FBE84A"/>
<stop offset="0.63" stop-color="#EEAE20"/>
<stop offset="1" stop-color="#DF9427"/>
</linearGradient>
</defs>
</svg>

<svg xmlns="http://www.w3.org/2000/svg" width="24" height="24" fill="none" viewBox="0 0 24 24">
    <path fill="#F0D43A" d="M3.666 9.056h-.555V7l2.005-1.178.29.59-1.74 1.177V9.06zm.017 5.889h-.572v2.35l2.005 1.177.217-.889-1.65-.877zm16.633-5.89h.573V7l-2.006-.883-.289.589 1.722.883V9.06zm.017 5.89h.556V17l-2.006 1.178-.217-.89 1.667-.877zM11.711 2.883l-1.434.59-.283-.59L11.716 2l1.723.883-.295.59zm0 18.234-1.434-.59-.283.59 1.722.883 1.723-.883-.295-.59z"/>
    <path fill="url(#SPE__a)" d="m5.334 16 6.378 3.639 6.956-3.933V8.472l-6.934-3.95-6.4 3.945zm6.378-12.822-7.489 4.41v9.118l7.49 4.116 8.066-4.41V7.588z"/>
    <path fill="url(#SPE__b)" d="m18.11 8.472-6.4-3.533-5.82 3.533v7.35l5.822 3.24 6.4-2.95z"/>
    <path fill="url(#SPE__c)" d="m11.705 2.589 8.628 4.85v9.128l-8.622 4.844-8.044-4.556v-9.41zm.011.672L4.222 7.778v8.733l7.489 4.233 8.067-4.522V7.778L11.722 3.26z"/>
    <path fill="url(#SPE__d)" d="m11.706 4.356 6.96 3.966v7.795l-6.955 3.528-6.377-3.528V8.333l6.372-3.972zm.01.677L5.89 8.656v7.166l5.822 3.15 6.4-3.339V8.667z"/>
    <path fill="#F9DA2B" d="M12.555 12c0 .489-.372.883-.833.883s-.833-.394-.833-.883.372-.883.833-.883.833.394.833.883"/>
    <path fill="url(#SPE__e)" fill-rule="evenodd" d="M14.012 13.317a10 10 0 0 1-.245 1.344h.006c-.133.972-.844 2.633-2.028 2.633-.75 0-1.422-.81-1.85-2.066-1.289.255-2.322.078-2.7-.583a1.23 1.23 0 0 1-.139-.745l.584.039a.7.7 0 0 0 .06.417c.067.11.206.233.473.31.278.084.65.112 1.122.062l.434-.067a9.5 9.5 0 0 1-.245-1.344c-1.055-.784-3.128-2.49-2.289-3.961.378-.662 1.411-.84 2.7-.584.428-1.255 1.1-2.066 1.85-2.066.25 0 .49.088.711.25l-.322.488a.65.65 0 0 0-.389-.15c-.128 0-.3.056-.5.256a3 3 0 0 0-.716 1.183l-.056.173c.406.11.833.272 1.278.46 1.2-.527 3.7-1.488 4.544-.01.378.655.017 1.644-.85 2.644.867 1 1.228 1.989.85 2.645-.122.222-.317.383-.567.5l-.26-.528c.172-.078.272-.167.322-.261.066-.117.1-.295.039-.573a3 3 0 0 0-.512-1.005c-.083-.111-.172-.234-.277-.35q-.452.457-1.028.889m-.656.45a9 9 0 0 1-.16.76 7 7 0 0 1-.734-.238q.459-.241.894-.522M14.646 12a9 9 0 0 1-.573.522q.023-.522 0-1.044c.206.172.4.35.572.522m.4-.428q.148-.174.271-.35c.278-.383.445-.722.512-1.005.06-.278.027-.456-.04-.572-.066-.112-.2-.234-.472-.312a2.9 2.9 0 0 0-1.116-.06q-.219.024-.434.066.16.627.245 1.344.575.433 1.033.89m-1.85-2.1a7 7 0 0 0-.734.24q.459.24.894.521a9 9 0 0 0-.16-.76m-1.445.54q.897.423 1.705 1c.058.659.058 1.323 0 1.983q-.812.573-1.71.994a11 11 0 0 1-1.706-1 11.3 11.3 0 0 1 0-1.983 11 11 0 0 1 1.705-.995zm-.723-.3a7 7 0 0 0-.733-.24q-.084.361-.16.761.437-.28.9-.522zm-1.544.971q.085-.717.245-1.344a6 6 0 0 0-.434-.067 3 3 0 0 0-1.122.056c-.267.083-.406.205-.472.317-.061.116-.1.294-.034.572.067.277.234.622.512 1.005.083.111.166.234.272.35q.458-.457 1.033-.889M8.851 12c.172.172.366.35.572.522a12 12 0 0 1 0-1.044c-.206.172-.4.35-.572.522m1.444 2.528a18 18 0 0 1-.16-.761q.437.28.9.522c-.251.094-.5.178-.74.239m.172.566c.056.145.106.278.167.412.189.433.4.75.611.944.2.2.372.256.5.256.134 0 .306-.056.511-.256.206-.194.417-.511.611-.944q.085-.193.162-.412a9.4 9.4 0 0 1-1.278-.46q-.668.284-1.278.46z" clip-rule="evenodd"/>
    <path fill="#FAD024" d="M13.111 8.472c.307 0 .556-.263.556-.589s-.249-.589-.556-.589-.555.264-.555.59.248.588.555.588m-5.555 5.295c.306 0 .555-.264.555-.59s-.249-.588-.555-.588-.556.263-.556.589.249.589.556.589m7.222 1.761c.307 0 .555-.264.555-.59 0-.324-.248-.588-.555-.588s-.556.264-.556.589.249.589.556.589"/>
    <defs>
        <linearGradient id="SPE__a" x1="12.001" x2="12.001" y1="2" y2="22" gradientUnits="userSpaceOnUse">
            <stop stop-color="#E3B033"/>
            <stop offset="1" stop-color="#FBDC39"/>
        </linearGradient>
        <linearGradient id="SPE__b" x1="16.654" x2="7.563" y1="4.502" y2="20.457" gradientUnits="userSpaceOnUse">
            <stop stop-color="#B11723"/>
            <stop offset="1" stop-color="#570203"/>
        </linearGradient>
        <linearGradient id="SPE__c" x1="15.064" x2="11.911" y1="3.913" y2="21.986" gradientUnits="userSpaceOnUse">
            <stop stop-color="#FBF3A0"/>
            <stop offset=".23" stop-color="#F1CC3C"/>
            <stop offset=".47" stop-color="#FBEF8B"/>
            <stop offset=".63" stop-color="#EA9E28"/>
            <stop offset=".8" stop-color="#FADA39"/>
            <stop offset="1" stop-color="#FCD83B"/>
        </linearGradient>
        <linearGradient id="SPE__d" x1="12" x2="12" y1="2.443" y2="21.564" gradientUnits="userSpaceOnUse">
            <stop stop-color="#E9A223"/>
            <stop offset=".59" stop-color="#EC801A"/>
            <stop offset="1" stop-color="#EDB325"/>
        </linearGradient>
        <linearGradient id="SPE__e" x1="12.002" x2="12.002" y1="2" y2="22" gradientUnits="userSpaceOnUse">
            <stop stop-color="#DF9327"/>
            <stop offset=".29" stop-color="#FBE84A"/>
            <stop offset=".63" stop-color="#EEAE20"/>
            <stop offset="1" stop-color="#DF9427"/>
        </linearGradient>
    </defs>
</svg>
